!!!OTL: Corona aurea
**kern
*staff1
=--
*clefG2
*k[b-]
1.a
2a
1a
1.b-
2cc
2dd
2ee-
2dd
2cc
1b-
1cc
=-
1cc
2b-
2cc
1dd
1cc
1cc
=-
1.dd
2cc
1b-
0a
=-
!!linebreak:original
1a
1b-
1b-
1.a
2b-
1cc
1ee
=-
1a
2ff
2ee
2dd
2cc
1b-
1cc
1cc
=-
2b-
2cc
1dd
0b-
0b-
=-
!!linebreak:original
1a
2b-
2cc
2dd
2ee
2ff
2ee
1dd
1cc
=-
1dd
1ee
1ff
2ee
2cc
1dd
1cc
=-
!LO:TX:Y=-35:t=P
1b-
1cc
1dd
1ee
1ff
1ee
1dd
=-
!LO:TX:Y=-37:t=P
1.cc
2cc
0b-
!!linebreak:original
=-
1.a
2a
1a
1cc
2dd
2ee
2ff
2ee
2dd
2cc
1b-
1cc
=-
!LO:TX:Y=-195:t=P
1cc
1b-
1cc
1a
1cc
2b-
2cc
0cc
=-
1cc
1cc
2cc
2cc
1b-
1cc
=-
1.dd
2cc
0dd
1cc
1ff
1ff
1dd
1cc
!!linebreak:original
=-
1cc
2a
2a
1cc
1cc
1.b-
2cc
0dd
=-
1.dd
2cc
2b-
2b-
1cc
=-
1.dd
2cc
2b-
2b-
1cc
=-
1.dd
2cc
2b-
2b-
1cc
=-
1dd
1cc
0dd
0dd
!!pagebreak:original
=-
1.a
2a
1a
=-
1cc
2dd
2ee
2ff
2ee
=-
2dd
2cc
1b-
1cc
=-
1cc
2dd
2cc
0b-
1cc
=-
1dd
2dd
2cc
2b-
2b-
1a
!!linebreak:original
=-
1dd
2dd
2cc
2b-
2b-
1a
=-
1a
2b-
2b-
1a
2b-
2b-
=-
1a
1.cc
2cc
1cc
=-
1.cc
2cc
1b-
1cc
=-
1dd
1cc
0dd
0dd
=-
!!linebreak:original
1.b-
2b-
1b-
0a
=-
1b-
2b-
2cc
1dd
2cc
2cc
1b-
1a
=-
1g
2g
2b-
1b-
2b-
1b-
2g
0a
=-
!!linebreak:original
2.b-
4b-
2b-
2cc
2dd
2cc
1b-
1a
=-
1a
2b-
2cc
1b-
1a
1dd
2b-
1b-
2a
0b-
=-
!!linebreak:original
*M3/2
1b-
1b-
1cc
=-
0dd
1cc
=-
0b-
1a
=-
!LO:TX:Y=-36:t=P
1a
1a
1a
=-
1cc
1cc
1cc
=-
1a
1a
1a
!!linebreak:original
=-
0b-
1b-
=-
!LO:TX:Y=-198:t=P
0a
1a
=-
1dd
1dd
1dd
=-
0b-
1b-
=-
0a
1b-
=-
1.b-
2b-
0b-
=-
!!pagebreak:original
2b-
2b-
1b-
2b-
2b-
1a
=-
2a
2a
2cc
2b-
2g
1b-
2a
=-
2b-
2b-
2cc
2b-
2b-
1b-
2a
0a
=-
1cc
2ff
2dd
2ee
2ee
1dd
=-
1dd
1ee
2ff
2ff
2dd
2dd
=-
!!linebreak:original
1cc
1ff
1ff
1ee
=-
1ff
2ee
2dd
1cc
1dd
=-
2dd
2dd
2ee
2ee
1ff
1ee
=-
1ee
1ee
0dd
=-
0dd
0cc
=-
1ee
1ee
0dd
=-
0b-
1a
1r
!!linebreak:original
=-
1a
1ee
1ee
1ff
=-
2ee
2dd
1cc
1b-
1cc
=-
1cc
2dd
2dd
1cc
1b-
=-
1cc
2dd
2dd
1cc
1dd
!!linebreak:original
=-
2dd
2ff
1ee
1ff
1ff
=-
1ff
1ee
1ff
1ee
=-
2dd
2cc
1b-
1cc
=-
1cc
1dd
1ee
1ff
=-
1ee
2ff
2ee
2dd
2b-
2cc
2dd
=-
1.ee
4dd
4cc
0dd
!!linebreak:original
=-
1cc
2cc
2cc
2b-
2cc
1dd
=-
1ee
1ff
1ee
1ee
=-
2ee
2ee
2dd
2dd
1cc
1dd
=-
1ee
2ff
2ee
2dd
2b-
2cc
2dd
=-
1.ee
4dd
4cc
0dd
=-
!!linebreak:original
*met(c)
*M4/4
1.b-
2b-
1b-
2a
2b-
=-
1b-
2cc
2dd
2cc
2cc
1b-
=-
1a
1.a
2b-
2g
2g
=-
1a
1b-
1.a
2dd
=-
2b-
2b-
0a
0b-
=-
!!pagebreak:original
1.b-
2b-
2a
2b-
1.cc
2dd
=-
2cc
2b-
2b-
2a
1b-
1.b-
2b-
=-
2a
2b-
2cc
2dd
1cc
1dd
=-
1.dd
2dd
2cc
2b-
2b-
2a
1b-
=-
1ff
2dd
2b-
2b-
2a
1b-
=-
!!linebreak:original
1cc
2dd
2dd
1cc
0dd
=-
1dd
2cc
2dd
1.cc
2cc
2cc
2dd
=-
2b-
1a
1b-
1b-
2cc
=-
2dd
1.cc
2b-
2a
0b-
!!linebreak:original
=-
1dd
2dd
2dd
1cc
1dd
=-
1ee
2ff
2ff
1ee
1dd
=-
1cc
2ff
2dd
1cc
1dd
=-
1dd
2dd
2dd
2cc
2b-
2a
2b-
=-
2b-
2a
0b-
=-
!!linebreak:original
1.dd
2dd
1dd
=-
1.b-
2b-
1b-
=-
1cc
2ee
2ee
1ff
1ff
=-
!!linebreak:original
1dd
1.dd
2cc
2b-
2a
=-
1b-
1b-
1ff
1cc
1dd
=-
!!linebreak:original
2dd
2dd
2ee
2ee
2ff
2ff
2gg
2gg
1gg
=-
1.dd
2cc
1b-
2a
2b-
2b-
2a
=-
1b-
2cc
2cc
2cc
2cc
1cc
1ff
=-
1ff
1.ee
2ee
1ff
1dd
=-
1ee
1ff
1ff
0ff
=-
!!pagebreak:original
1.ff
2ff
1ff
1ff
2dd
2ff
=-
1ee
1dd
1dd
2cc
2b-
2b-
2a
=-
1b-
1dd
2ee
2dd
1b-
1cc
=-
2cc
2b-
2b-
2a
1b-
1.ff
2ff
=-
0ee
0dd
=-
!!linebreak:original
0dd
0cc
=-
1dd
2ff
2ee
1dd
2ff
2ee
=-
1dd
1ee
2dd
2dd
2dd
1dd
0dd
=-
!!linebreak:original
*met(c)
*M4/4
1b-
1a
1b-
0cc
1g
=-
0a
1b-
1b-
1b-
1b-
=-
1a
1a
1a
1g
1g
1g
=-
0a
1cc
0a
1g
=-
1.g
2g
0g
0g
=-
!!linebreak:original
1.ff
2ff
2ff
2ee
2dd
2dd
2ff
4ee
4ee
2dd
2dd
=-
4ee
4ee
2ff
4ee
4ee
2dd
2dd
2dd
4cc
4cc
2dd
2ff
4ee
4ee
2dd
2dd
=-
2cc
1dd
2ff
2ee
2dd
2cc
1ff
2ee
2dd
2cc
=-
2cc
1.dd
2dd
0b-
=-
!!linebreak:original
0dd
0b-
2ff
2ee
=-
2dd
1cc
2ff
2ee
2ff
2ff
2dd
2ee
1ff
1dd
=-
2ff
4ee
2dd
4cc
2dd
2cc
2ff
=-
4ee
2dd
4cc
1dd
0cc
=-
!!linebreak:original
*met(c)
*M4/4
1.cc
2cc
2cc
1cc
2b-
=-
2cc
2cc
2.cc
4cc
2cc
2cc
2.dd
4dd
=-
2ee
1gg
2gg
1ff
0ee
=-
!!pagebreak:original
1cc
2b-
2b-
2.cc
4cc
2b-
2a
2cc
2b-
=-
2a
2g
1ee
8ddL
8ccJ
2dd
2ee
1ee
2ee
2ee
=-
1ee
2.dd
4cc
1cc
2b-
2cc
1ee
=-
2dd
1cc
0b-
=-
!!linebreak:original
1b-
2a
2a
1b-
2ee
2dd
=-
2cc
2b-
2ee
2dd
2cc
2b-
=-
2a
1cc
2b-
2cc
2ff
2dd
2b-
1cc
=-
2b-
2.ee
4ee
4ee
4ee
2dd
2cc
1b-
=-
2cc
2.g
4g
4g
4g
2g
2g
1a
0f
=-
!!linebreak:original
1cc
2cc
1cc
2b-
=-
2cc
1cc
2.cc
4cc
2cc
=-
2cc
2.dd
4dd
2ee
2.ee
8ddL
8ccJ
2dd
=-
0dd
0dd
0b-
=-
2.a
4b-
1ee
2ee
2.ee
4ee
4ee
4ee
1dd
=-
!!linebreak:original
2dd
4ee
2cc
4b-
2cc
2.ee
4dd
2cc
2cc
1b-
=-
1ee
2ff
1gg
2ff
1ee
2dd
1cc
2dd
2cc
1cc
2b-
=-
0b-
2cc
1ff
4ee
4dd
0ee
=-
!!linebreak:original
1a
2ee
1ee
1ee
2ff
2ee
1dd
1cc
2dd
1ee
2dd
2ff
2ee
1ee
=-
1ee
2cc
2cc
1dd
1dd
2ee
2ff
1ee
1dd
=-
1dd
1cc
1.b-
2b-
1cc
1dd
=-
1.dd
2ee
2ff
1ee
1dd
2cc
1dd
=-
!!linebreak:original
2cc
2cc
1b-
1cc
1dd
2ee
2ee
=-
1ff
1ee
1.dd
2ff
2ee
2dd
=-
1cc
1dd
1.dd
2dd
2ff
2dd
1ee
1dd
=-
1.ff
2ff
1gg-
1ff
1.ee
2cc
=-
0dd
0b-
1.dd
4cc
4b-
0cc
=-
!!pagebreak:original
*met(c)
*M4/4
1b-
1b-
2cc
1cc
1cc
1cc
1cc
1cc
2ee
=-
1dd
1dd
1dd
2cc
1cc
2dd
=-
1ee
2dd
2cc
2dd
2ee
2ff
2ee
1ee
2dd
2cc
2dd
2cc
=-
1b-
1cc
1dd
1dd
0cc
0ee
=-
!!linebreak:original
1ff
1ff
1ee
1ff
=-
1ee
2dd
2cc
1b-
1cc
=-
1cc
1dd
1ee
1ff
=-
1ee
2ff
2ee
2dd
2b-
2cc
2dd
=-
1.ee
4dd
4cc
0dd
=-
!!linebreak:original
1a
2a
2a
1b-
1a
=-
1ee
2dd
2cc
1.b-
2b-
=-
1cc
2a
1cc
2b-
1cc
=-
1g
1a
2b-
2dd
2dd
2dd
=-
1ee
1.dd
2dd
2dd
1cc
2b-
1cc
=-
1ee
2ee
2ee
1.ee
2ee
1cc
=-
1b-
2ff
2dd
1cc
0cc
=-
!!linebreak:original
1dd
2dd
2dd
1ee
1dd
2b-
2a
2b-
2b-
=-
2ee
2dd
2cc
2b-
1cc
2b-
1cc
=-
2cc
2g
1.a
2a
1g
=-
2g
1b-
2a
0b-
=-
!!linebreak:original
00r
=-
00r
=-
00r
=-
00r
=-
00r
=-
00r
=-
00r
=-
00r
=-
00r
=-
00r
=-
00r
=-
00r
=-
00r
=-
00r
=-
00r
=-
00r
=-
!!linebreak:original
1a
2cc
1dd
2ff
1dd
1dd
1dd
1ee
2ff
2dd
1dd
=-
1g
0cc
1cc
=-
1a
0cc
0b-
=-
2cc
2dd
2ee
2cc
1b-
1a
=-
0f
0cc
=-
!!pagebreak:original
1ee
1dd
1ee
2ee
2ee
=-
2dd
2cc
1b-
1a
1cc
=-
1ee
1ee
1dd
2ee
2dd
=-
1cc
1b-
0a
=-
1.ee
2ee
1ee
1.dd
2ee
=-
1dd
1cc
2b-
2cc
0dd
=-
!!linebreak:original
1g
1b-
1ee
1ee
1ee
1ee
=-
1ee
1ee
1dd
1dd
1ee
1cc
=-
1ee
1.ee
2ee
1ee
1.dd
2dd
=-
1ee
2dd
1ee
0ee
0dd
=-
!!linebreak:original
1a
1cc
1ee
1ee
1ee
1ee
=-
1ee
1ee
1ee
1ff
1ff
1ee
=-
1dd
2cc
2b-
2cc
2dd
2ee
2dd
1dd
=-
2cc
2b-
2cc
2b-
1a
1b-
=-
1cc
1cc
1b-
1b-
0dd
=-
!!linebreak:original
*met(c)
*M4/4
1g
1a
2b-
=-
1b-
1b-
1b-
1b-
1b-
1b-
=-
1b-
2dd
1b-
1b-
1b-
2a
1a
1b-
=-
!!linebreak:original
1cc
2cc
2cc
2b-
2cc
1dd
1ee
1ff
=-
1ee
1ee
2ee
2ee
2dd
2dd
1cc
1dd
=-
1ee
2ff
2ee
2dd
2b-
2cc
2dd
=-
1.ee
4dd
4cc
0b-
=-
!!linebreak:original
1ee
2dd
2cc
2dd
2ee
2ff
2ee
=-
1ee
2dd
2cc
2dd
2cc
1b-
=-
1cc
1dd
1dd
1cc
0dd
=-
1b-
1dd
2b-
1dd
2ee
2cc
1a
2b-
2dd
2b-
=-
!!pagebreak:original
1.b-
2a
1b-
2b-
2cc
=-
1dd
1dd
1dd
1ee
=-
1dd
1ff
2gg
2gg
1ff
=-
1dd
2ee
2ff
1gg
1ff
=-
1ff
2gg
2gg
2ff
2dd
2ee
2ee
=-
1dd
1ff
1ff
2ee
2ff
!!linebreak:original
=-
1gg
2gg
2ff
1ee
2ee
2ee
=-
1dd
1dd
2ee
2ee
2dd
2ff
=-
2ee
2cc
1dd
1dd
1ee
1.ff
2ff
2gg
2ff
1ee
=-
1ff
2gg
2gg
2ff
2dd
1ee
=-
1ee
1dd
1ee
2ee
2dd
=-
1ee
2ee
2ee
0dd
=-
!!linebreak:original
1a
1b-
2a
1a
2dd
=-
1dd
1dd
1dd
1dd
=-
1dd
2cc
1dd
2ee
1ee
=-
1dd
2ee
1dd
=-
1ee
2ee
2dd
2ee
2ff
2gg
2ff
=-
2ee
2dd
1cc
1b-
1cc
=-
1cc
1cc
1b-
1cc
!!linebreak:original
=-
1dd
1ee
1cc
2cc
2dd
=-
2ee
2dd
2cc
2b-
1a
1b-
=-
1ee
1ee
1ff
1gg
=-
1ee
1dd
1.ee
4dd
4cc
0dd
=-
!!linebreak:original
*met(c)
*M4/4
1e
1e
1g
2a
1a
2g
1b-
=-
2dd
1b-
1a
1a
1a
2b-
1a
=-
1a
1b-
2a
1a
2dd
=-
1dd
1dd
1dd
1dd
=-
1dd
1dd
1dd
1dd
=-
1dd
1dd
2cc
1dd
2ee
=-
1dd
2ee
1dd
=-
!!linebreak:original
1ee
2ee
2dd
2ee
2ff
2gg
2ff
=-
2ee
2dd
1cc
1b-
1cc
=-
1cc
1cc
1b-
1cc
=-
1dd
1ee
1cc
2cc
2dd
=-
2ee
2dd
2cc
1a
1b-
=-
1ee
1ee
1ff
1gg
=-
1ee
1dd
1.ee
4dd
4cc
0dd
=-
!!pagebreak:original
*met(c)
*M4/4
1g
2cc
2cc
1cc
2ee-
2cc
1b-
=-
1a
2b-
2cc
2b-
2dd
1cc
1cc
=-
1b-
2a
1b-
2cc
1cc
=-
1cc
1cc
1cc
1cc
=-
1cc
1cc
1cc
1cc
=-
2ee
1dd
1dd
1dd
1dd
2cc
1cc
2dd
=-
!!linebreak:original
1dd
2cc
2b-
2cc
2dd
2ee
2dd
=-
1dd
1dd
2cc
2b-
2cc
2b-
=-
1a
1b-
1cc
1cc
=-
0b-
0cc
=-
!!linebreak:original
*met(c)
*M4/4
1g
1a
2b-
1b-
1b-
1b-
1b-
1b-
1b-
2dd
1b-
1b-
2a
1a
2b-
=-
1cc
2cc
2cc
2b-
2cc
1dd
1ee
1ff
1ee
=-
1ee
2ee
2ee
2dd
2dd
1cc
1dd
1ee
2ff
2ee
=-
2b-
2cc
2dd
1.ee
4dd
4cc
=-
!!linebreak:original
1g
0b-
1cc
1g
=-
1cc
1b-
2cc
2dd
2ee
2dd
=-
1cc
1b-
1g
1cc
=-
0ee
0dd
=-
1ee
2ee
2ee
2dd
2cc
1b-
=-
1a
1cc
1ee
1ee
=-
1dd
2ee
2dd
1cc
1b-
=-
1b-
1cc
1.ff
2ff
=-
1ff
1.dd
2ee
1dd
=-
1cc
2dd
2ee
0ff
0ee
=-
!!linebreak:original
*met(c)
*M4/4
1b-
2a
1b-
2cc
1cc
=-
1cc
1cc
2ee
1dd
1dd
1dd
1cc
1cc
2dd
=-
1ee
2dd
2cc
2dd
2ee
2ff
2ee
=-
1ee
2dd
2cc
2dd
2cc
1b-
=-
1cc
1dd
1dd
0cc
0ee
0ee
=-
!!linebreak:original
1f
2g
2b-
1a
1a
=-
1a
1b-
2a
1a
2dd
=-
1dd
1dd
1dd
1dd
=-
1dd
1dd
1dd
1dd
=-
1dd
2cc
1dd
2ee
1ee
=-
1dd
2ee
1dd
=-
!!pagebreak:original
1ee
2ee
2dd
2ee
2ff
2gg
2ff
=-
2ee
2dd
1cc
1b-
1cc
=-
1cc
1cc
1b-
1cc
=-
1dd
1ee
1cc
2cc
2dd
=-
2ee
2dd
2cc
2b-
1a
1b-
=-
1ee
1ee
1ff
1ee
=-
1dd
1.ee
4dd
4cc
0cc
=-
!!linebreak:original
1.a
2a
1b-
1a
1dd
1cc
=-
1cc
1.cc
2cc
1dd
=-
1dd
1.cc
2cc
1cc
=-
1a
1b-
1cc
1dd
=-
1dd
1cc
1cc
1cc
=-
1b-
1a
1b-
1g
=-
1g
1a
1a
1a
=-
1a
1.b-
2b-
0a
=-
!!linebreak:original
1.a
2a
1b-
1a
=-
1.cc
2cc
1dd
1cc
=-
1cc
1b-
1a
1b-
=-
1cc
1.dd
2dd
1.dd
2dd
1cc
=-
1cc
1b-
1a
1dd
1cc
1cc
=-
2a
1.b-
2cc
1b-
0a
=-
!!linebreak:original
1.a
2a
1a
1a
1b-
=-
1b-
1a
1a
1b-
=-
1cc
1cc
1.cc
2cc
=-
1a
1.cc
2b-
1cc
=-
1.a
2a
1a
1cc
=-
2a
1b-
2b-
2a
1.b-
2b-
0a
=-
!!linebreak:original
1f
1a
1b-
1a
=-
1b-
1b-
2a
1a
1f
=-
1a
1g
1f
1g
=-
1a
1f
1g
1a
=-
1g
1.g
2b-
1a
=-
2a
2a
2b-
2cc
1.b-
2b-
0a
=-
!!linebreak:original
1a
1a
1f
1a
=-
1cc
1b-
1a
1cc
=-
1b-
1a
1g
1f
=-
1g
1a
1f
1g
=-
1a
1a
1g
1b-
1a
=-
2a
2b-
2cc
1b-
1a
=-
1f
1a
2b-
2a
1b-
=-
1b-
2dd
2b-
1a
2b-
2a
=-
!!pagebreak:original
1b-
1ee
1ee
1ee
=-
1cc
0dd
0cc
=-
2ee
2dd
2cc
2ee
1dd
1cc
=-
0g
0cc
=-
0dd
0cc
=-
!!linebreak:original
1ee
2ee
2ee
2ff
2cc
1dd
=-
1cc
1ee
1gg
1gg
=-
1ff
4cc
4dd
1ee
=-
0dd
0ee
=-
1.gg
2gg
1gg
1.b-
2gg
1ff
=-
1ee
2ff
2gg
0gg
0ff
=-
!!linebreak:original
1a
1cc
1ee
1ee
=-
1ee
1ee
1ee
1ee
=-
1ee
1ff
1ff
1ee
=-
1ee
2dd
2cc
2dd
2ee
2ff
2ee
=-
1ee
2dd
2cc
2dd
2cc
1b-
=-
1cc
1dd
1dd
0cc
0dd
=-
!!linebreak:original
1ff
1ee
2cc
2b-
2cc
2dd
=-
1ee
2dd
2ee
2cc
2b-
0b-
=-
2cc
2dd
1ee
2ee
2cc
2b-
2g
=-
2a
2g
1.f
2e
0f
=-
!!linebreak:original
1ff
1ee
2cc
2b-
2cc
2dd
=-
1ee
2dd
2ee
2cc
2b-
0cc
=-
2cc
2dd
2ee
2cc
2b-
2g
2a
2g
=-
2f
2e
0f
2f
4g
4g
=-
!!linebreak:original
2a
2a
1a
1g
2a
2b-
=-
1cc
2cc
2dd
1ee
2ee
2cc
=-
2b-
2g
2a
2g
2f
2e
1f
=-
1ff
1ee
2cc
2b-
2cc
2dd
=-
1ee
2dd
2ee
2cc
2b-
0cc
=-
!!pagebreak:original
1.dd
2dd
1cc
1dd
2ee
2dd
1cc
=-
1dd
1.dd
2dd
1cc
1b-
2dd
2dd
=-
1cc
1dd
1.dd
2cc
=-
1b-
1ee
1.cc
2cc
0cc
=-
!!linebreak:original
1.dd
2dd
1dd
1cc
=-
2ee
2dd
1cc
1b-
2dd
2dd
=-
1cc
1dd
2g
2dd
1cc
=-
1dd
1.dd
2cc
1b-
=-
1a
2dd
2ee
1cc
1ff
=-
1dd
1cc
2dd
2dd
1.cc
2cc
1ff
=-
2b-
1ee
2ee
2ff
1.gg-
2b-
0cc
=-
!!linebreak:original
1g
1g
1a
2b-
2g
1f
1b-
=-
1cc
2dd
1dd
2cc
2b-
1cc
1dd
=-
1f
1g
2f
1f
2b-
=-
1b-
1b-
2a
1b-
2cc
=-
1cc
1b-
2cc
1b-
1b-
=-
!!linebreak:original
1ee
2ee
2dd
2ee
2ff
2gg
2ff
=-
2ee
2dd
1cc
1b-
1cc
=-
0cc
1b-
1cc
=-
1dd
1ee
1cc
2cc
2dd
=-
2ee
2dd
2cc
2b-
1a
1b-
=-
1ee
1ee
1ff
1gg
=-
1ee
1dd
1.ee
4dd
4cc
0dd
=-
!!linebreak:original
1a
0dd
1dd
=-
1b-
0cc
0b-
=-
2dd
2ee
2ff
2dd
1cc
1b-
=-
0a
0cc
=-
0dd
0b-
=-
!!linebreak:original
1ff
2ff
2ff
2ee
2dd
1cc
=-
1b-
1dd
1ff
1ff
=-
1ee
2ff
2ee
1dd
1cc
=-
0cc
0dd
=-
1.ff
2ff
1ff
1.ee
2ff
1ee
=-
1dd
2ee
2ff
0gg
0ee
=-
!!pagebreak:original
1f
1a
1cc
1cc
=-
1cc
1cc
1cc
1b-
=-
1b-
1cc
1a
1.cc
2cc
1cc
=-
1.b-
2b-
1cc
2b-
2cc
0dd
0cc
=-=
*-
!!title: @{OTL}, @{GTL}, ed. @{ENC}
!!!pag:
!!!GTL: Hymnbook C
!!!EFL: 
!!!YEM: Creative Commons CC/BY/NC/SA 4.0
!!!ENC: Marcin Konik
!!!END: 2015-0m-dd
!!!EED: Marcin Konik
!!!EEV: 
!!!ONB: Encoded in vim by Marcin Konik
!!!CharacterEncoding: utf-8
!!!RDF**kern: l=long note in original notation
!!!RDF**kern: i=editorial accidental
!!muse2ps: z14jc180F
!!!COM: Anonim
!!!CDT: [?]
!!!TXO: Polish
!!!ODT: 
!!!GTL: Hymnbook C
!!!ARL: Opactwo św. Wojciecha, Staniątki 
!!!voices:	1
